X:39
T:The Joys of West Mabou CoalMines
R:Reel
O:Cape Breton
M:2/2
C:D.A. Beaton-Ashley MacIsaac
K:G
c|B2 AB GEDE|GABG AAAc|B2 AB GEDE|GBgB G/2G/2G:|e|gfed e2 g2|
dBgB A/2A/2Ae|gfed e2 g2|dBAB GGGe|gfed e2 g2|dBgB AAAc|
B2 AB GEDE|GBgB G/2G/2G:||
